X:8554
T:Sample tune - abcm2ps (accordion.abc) - Andro à Patrice Corbel
F:http://richardrobinson.tunebook.org.uk/tune/6467
M:4/4
N: validé 03/05/01 -- 04/08/02
O:Bretagne
R:Andro
K:Am
% tablature examples
% --- diatonic accordion
% length x y n accordh - accordion tablature header with 2 or 3 lines
/accordh{
% /Times-Roman 14 selectfont
/nlines exch def
.8 SLW
gsave 20 add T /w exch def
0 0 M w 0 RL
0 3 M w 0 RL
0 21 M w 0 RL
0 39 M w 0 RL
nlines 2 eq{
0 42 M w 0 RL
stroke
/barh 42 def
3 7 M (T:) show
3 25 M (P:) show
}{
0 57 M w 0 RL
0 60 M w 0 RL
stroke
/barh 60 def
3 7 M (B/a:) show
3 25 M (T:) show
3 43 M (P:) show
}ifelse
grestore
}!
% string x y n accordn - accordion tablature
/str ( ) def
/accordn{
-18 mul add barh add 3 add M showc
}!
/accordb{
0 eq{20 add M 0 barh RL stroke}
{pop pop}ifelse pop}!
 "A"A2 cA "F" aAce | "G"dGBd "C"e4 | "F"fedc "G"B2 AB |1 "F"cABc "E"B4 :|2 "F"cABc "A"A4 :|\
w:    *  * * * * * *   8 6 7 8  7'   * * * *  * * *   * * * *  7   * * * *  *  
w:    7  8 7 11 7 8 9   * * * *  *   8' 9 7' 8  6' 7 6'   8 7 6' 8  *   8 7 6' 8  7  
 "A"A2 GF "E"E3 B | "E"c2 d2 "C"e4 | "F"fedc "G"B2 AB |1 "F"cABc "E"B4 :|2 "F"cABc "A"A4 :|
w:    * 6 *  4' 7   6' 8  7'   * * * *  * * *   * * * *  7   * * * *  *  
w:    7 * 4'  * *   * *  *   8' 9 7' 8  6' 7 6'   8 7 6' 8  *   8 7 6' 8  7  
w: 

% created from http://www.cadb.org/tablat/tabyf1.gif

%%beginps
% length x y n accordh1 - accordion tablature header with 1 line
/accordfirst 1 def
/accordh1{
	/hyphx [3 -1 roll{0}repeat] def
	.8 SLW
	accordfirst 0 ne{
		gsave T
		pop
		/Helvetica-BoldOblique 12 selectfont
		22 24 M 0 34 RL stroke
		6 9 M (B) show
		6 27 M (T) show
		6 46 M (P) show
		grestore
		/accordfirst 0 def}
	{pop pop pop}ifelse}!
% string x y n accordn1 - accordion tablature note
/str ( ) def
/accordn1{
	/linen exch def
	linen 0 eq{48 add}
		{linen -13 mul add 40 add}ifelse
	hyphx linen get dup 0 ne{
		2 index sub 20 add 2 index 10 sub 2 index 4 add M 0 RL stroke
		hyphx linen 0 put}
	{pop}ifelse
	M
	dup dup length 1 sub get 2 eq{		% hyphen ('-' = 0x02)
		hyphx linen currentpoint pop put
% should remove the 0x02
	}if
	showc}!
% string x y n accordb1 - accordion tablature bar
/accordb1{
	/linen exch def
	hyphx linen get dup 0 ne{
		2 index sub 20 add 3 1 roll
		linen 0 eq{48 add}
			{linen -13 mul add 40 add}ifelse
		M -10 4 RM 0 RL stroke
		hyphx linen 0 put}
	{pop pop pop}ifelse
	pop}!
%%endps

U:i=!invisible!
%%vocalfont Helvetica 12

